StripePaymentSheet/StripePaymentSheet/Resources/StripePaymentSheet.xcassets/PaymentMethods/icon-pm-boleto.imageset/icon-pm-boleto.svg

<svg fill="none" height="16" viewBox="0 0 20 16" width="20" xmlns="http://www.w3.org/2000/svg"><path clip-rule="evenodd" d="m0 14.5v-13h20v13zm18.7273-11.7h-17.45457v10.4h17.45457zm-13.45457 1.48571v7.42859h-2.72728v-7.42859zm2.72727 0v7.42859h-2v-7.42859zm3.6364 0v7.42859h-2.72731v-7.42859zm1.6363 0v7.42859h-.5454v-7.42859zm2 0v7.42859h-1.2727v-7.42859zm2 0v7.42859h-1.2727v-7.42859z" fill="#000" fill-rule="evenodd"/></svg>

<svg width="20" height="16" viewBox="0 0 20 16" fill="none" xmlns="http://www.w3.org/2000/svg">
<path fill-rule="evenodd" clip-rule="evenodd" d="M0 14.5V1.5H20V14.5H0ZM18.7273 2.8H1.27273V13.2H18.7273V2.8ZM5.27273 4.28571V11.7143H2.54545V4.28571H5.27273ZM8 4.28571V11.7143H6V4.28571H8ZM11.6364 4.28571V11.7143H8.90909V4.28571H11.6364ZM13.2727 4.28571V11.7143H12.7273V4.28571H13.2727ZM15.2727 4.28571V11.7143H14V4.28571H15.2727ZM17.2727 4.28571V11.7143H16V4.28571H17.2727Z" fill="black"/>
</svg>
